icons/trophy-24.svg

<svg xmlns="http://www.w3.org/2000/svg" width="24" height="24" viewBox="0 0 24 24"><path fill-rule="evenodd" d="M5.09 10.121A5.252 5.252 0 011 5V3.75C1 2.784 1.784 2 2.75 2h2.364c.236-.586.81-1 1.48-1h10.812c.67 0 1.244.414 1.48 1h2.489c.966 0 1.75.784 1.75 1.75V5a5.252 5.252 0 01-4.219 5.149 7.01 7.01 0 01-4.644 5.478l.231 3.003a.326.326 0 00.034.031c.079.065.303.203.836.282.838.124 1.637.81 1.637 1.807v.75h2.25a.75.75 0 010 1.5H4.75a.75.75 0 010-1.5H7v-.75c0-.996.8-1.683 1.637-1.807.533-.08.757-.217.836-.282a.334.334 0 00.034-.031l.231-3.003A7.01 7.01 0 015.09 10.12zM5 3.5H2.75a.25.25 0 00-.25.25V5A3.752 3.752 0 005 8.537V3.5zm6.217 12.457l-.215 2.793-.001.021-.003.043a1.203 1.203 0 01-.022.147c-.05.237-.194.567-.553.86-.348.286-.853.5-1.566.605a.482.482 0 00-.274.136.265.265 0 00-.083.188v.75h7v-.75a.265.265 0 00-.083-.188.483.483 0 00-.274-.136c-.713-.105-1.218-.32-1.567-.604-.358-.294-.502-.624-.552-.86a1.203 1.203 0 01-.025-.19l-.001-.022-.215-2.793a7.076 7.076 0 01-1.566 0zM19 8.578V3.5h2.375a.25.25 0 01.25.25V5c0 1.68-1.104 3.1-2.625 3.578zM6.5 2.594c0-.052.042-.094.094-.094h10.812c.052 0 .094.042.094.094V9a5.5 5.5 0 11-11 0V2.594z"/></svg>

<svg xmlns="http://www.w3.org/2000/svg" width="24" height="24" viewBox="0 0 24 24">
  <defs/>
  <path d="M5.09,10.121 C2.698,9.578 1,7.453 1,5 L1,3.75 C1,2.784 1.784,2 2.75,2 L5.114,2 C5.35,1.414 5.924,1 6.594,1 L17.406,1 C18.076,1 18.65,1.414 18.886,2 L21.375,2 C22.341,2 23.125,2.784 23.125,3.75 L23.125,5 C23.125,7.502 21.359,9.657 18.906,10.149 C18.482,12.689 16.699,14.793 14.262,15.627 L14.493,18.63 C14.504,18.641 14.515,18.651 14.527,18.661 C14.606,18.726 14.83,18.864 15.363,18.943 C16.201,19.067 17,19.753 17,20.75 L17,21.5 L19.25,21.5 C19.664,21.5 20,21.836 20,22.25 C20,22.664 19.664,23 19.25,23 L4.75,23 C4.336,23 4,22.664 4,22.25 C4,21.836 4.336,21.5 4.75,21.5 L7,21.5 L7,20.75 C7,19.754 7.8,19.067 8.637,18.943 C9.17,18.863 9.394,18.726 9.473,18.661 C9.485,18.651 9.496,18.641 9.507,18.63 L9.738,15.627 C7.292,14.789 5.505,12.672 5.09,10.12 Z M6.5,2.594 L6.5,9 C6.5,12.038 8.962,14.5 12,14.5 C15.038,14.5 17.5,12.038 17.5,9 L17.5,2.594 C17.5,2.542 17.458,2.5 17.406,2.5 L6.594,2.5 C6.542,2.5 6.5,2.542 6.5,2.594 Z M11.217,15.957 L11.002,18.75 L11.001,18.771 L10.998,18.814 C10.994,18.863 10.986,18.913 10.976,18.961 C10.926,19.198 10.782,19.528 10.423,19.821 C10.075,20.107 9.57,20.321 8.857,20.426 C8.753,20.44 8.657,20.488 8.583,20.562 C8.531,20.611 8.501,20.679 8.5,20.75 L8.5,21.5 L15.5,21.5 L15.5,20.75 C15.499,20.679 15.469,20.611 15.417,20.562 C15.343,20.488 15.247,20.44 15.143,20.426 C14.43,20.321 13.925,20.106 13.576,19.822 C13.218,19.528 13.074,19.198 13.024,18.962 C13.011,18.899 13.002,18.836 12.999,18.772 L12.998,18.75 L12.783,15.957 C12.263,16.015 11.737,16.015 11.217,15.957 Z M19,8.578 C20.521,8.1 21.625,6.68 21.625,5 L21.625,3.75 C21.625,3.612 21.513,3.5 21.375,3.5 L19,3.5 Z M5,3.5 L2.75,3.5 C2.612,3.5 2.5,3.612 2.5,3.75 L2.5,5 C2.5,6.59 3.502,8.007 5,8.537 Z"/>
</svg>
